!!!COM:	Bach, Johann Sebastian
!!!CDT:	1685/02/21/-1750/07/28/
!!!OTL@@DE:	Befiehl du deine Wege
!!!SCT:	BWV 272
!!!PC#:	340
!!!AGN:	chorale
**kern	**kern	**kern	**kern
*ICvox	*ICvox	*ICvox	*ICvox
*Ibass	*Itenor	*Ialto	*Isoprn
*I"Bass	*I"Tenor	*I"Alto	*I"Soprano
*>[A,A,B]	*>[A,A,B]	*>[A,A,B]	*>[A,A,B]
*>norep[A,B]	*>norep[A,B]	*>norep[A,B]	*>norep[A,B]
*>A	*>A	*>A	*>A
*	*oclefC4	*oclefC3	*oclefC1
*clefF4	*clefGv2	*clefG2	*clefG2
*k[b-]	*k[b-]	*k[b-]	*k[b-]
*d:	*d:	*d:	*d:
*M4/4	*M4/4	*M4/4	*M4/4
*met(c)	*met(c)	*met(c)	*met(c)
*MM100	*MM100	*MM100	*MM100
8FL	8AL	8dL	8dL
8EJ	8GJ	8c#J	8eJ
=1	=1	=1	=1
4.D	4A	4d	4f
.	4G	4B-	4e
8C#	.	.	.
8DL	4F	4A	4f
8CJ	.	.	.
8BB-L	8FL	8dL	4g
8CJ	8EJ	8cnXJ	.
=2	=2	=2	=2
2FF	2F	2c	2a
4FF;	4F;	4c;	4a;
4E	4G	4c	4cc
=3	=3	=3	=3
4D	4G#	4f	4b
4D#	4c	4f#	4a
4E	8BL	4e	4a
.	8cJ	.	.
4EE	4dnX	4e	4g#
=4	=4	=4	=4
2.AA;	2.c;	2.e;	2.a;
=:|!	=:|!	=:|!	=:|!
*>B	*>B	*>B	*>B
[4A	4c	8eL	4a
.	.	8f#J	.
=5	=5	=5	=5
4A]	4d	4g#	4b
8AL	4e	4a	4cc
8GnXJ	.	.	.
4F#	4d	4a	8ddL
.	.	.	8ccJ
8GL	4d	4g	4b
8FJ	.	.	.
=6	=6	=6	=6
8EL	8cL	4g	4.cc
8CJ	8eJ	.	.
8DL	8dL	8fL	.
8EJ	8cJ	8gJ	8b-X
4F;	4c;	4f;	4a;
4FF	4c	8fL	4a
.	.	8e-J	.
=7	=7	=7	=7
4BB-	4B-	4d	4g
4BBnX	4A-	4d	4f
4C	4.G	4c	4f
4CC	.	4c	4enX
.	16AnXLL	.	.
.	16B-XJJ	.	.
=8	=8	=8	=8
2.FF;	2.A;	2.c;	2.f;
4C#	4A	4e	8aL
.	.	.	8gJ
=9	=9	=9	=9
8DL	4A	4.f	4f
8CnXJ	.	.	.
8BB-L	8dL	.	4g
8CJ	8cJ	8e	.
8FFL	4c	4.f	4a
8AAJ	.	.	.
8BBL	8dL	.	4g
8C#J	8eJ	[8e	.
=10	=10	=10	=10
8DL	8AL	8eL]	2f
8BB-XJ	8G#J	8dJ	.
8AAL	8AL	4d	.
8GG#XJ	8BJ	.	.
4AA;	4A;	4c#;	4e;
4D	4A	[4d	4f
=11	=11	=11	=11
4E	4G	8dL]	4g
.	.	8c#J	.
8FL	4A	2d	4f
8GJ	.	.	.
4A	4.A	.	2e
4AA	.	4c#	.
.	8G	.	.
=12	=12	=12	=12
2.D;	2.F;	2.A;	2.d;
==	==	==	==
*-	*-	*-	*-
!!!YOR1: 371 vierstimmige Choralges&auml;nge von Johann Sebastian Bach, 
!!!YOR2: 4th ed. by Alfred D&ouml;rffel (Leipzig: Breitkopf und H&auml;rtel, 
!!!YOR2: c.1875). 178 pp. Plate "V.A.10".  reprint: J.S. Bach, 371 Four-Part 
!!!YOR4: Chorales (New York: Associated Music Publishers, Inc., c.1940).
!!!SMS: B&H, 4th ed, Alfred D&ouml;rffel, c.1875, plate V.A.10
!!!EED:  Craig Stuart Sapp
!!!EEV:  2009/05/22
